X:2352
T:Buttered Pease. BF13.042
M:2/2
L:1/8
Q:180
S:J.Lishman(?)MS,c1825,Lakes,Browne Coll.
R:Reel
O:England
A:Lakes
Z:vmp.Cherri Graebe.
K:G major
c2|BddB ceec|BddB cAAc|BddB ceec|BdAc BGG|!
|"crot"c|Bddf af"qu"g2|Bddf aAAc|Bddf af"qu"g2|BdAc BGG:||


